/* XPM */
static char * pentagram_xpm[] = {
"32 32 61 1",
" 	c None",
".	c #675353",
"+	c #000000",
"@	c #211D1D",
"#	c #6F5756",
"$	c #FCA89D",
"%	c #D41900",
"&	c #FE8270",
"*	c #A15C52",
"=	c #812611",
"-	c #FB9B72",
";	c #E17B50",
">	c #FF4D00",
",	c #A84111",
"'	c #8C6A56",
")	c #453625",
"!	c #874A00",
"~	c #BAA368",
"{	c #FAE898",
"]	c #FAFA82",
"^	c #D3D9B2",
"/	c #999F8E",
"(	c #82A368",
"_	c #00FF8C",
":	c #07BB79",
"<	c #323C39",
"[	c #14605D",
"}	c #696A6A",
"|	c #00EDFF",
"1	c #DEF9FC",
"2	c #748F93",
"3	c #17394A",
"4	c #3494CB",
"5	c #3B6983",
"6	c #0C1317",
"7	c #12274D",
"8	c #A5B5D4",
"9	c #0F1833",
"0	c #4C63E0",
"a	c #CDD1EC",
"b	c #42428F",
"c	c #31314B",
"d	c #1E1B80",
"e	c #2F1D5A",
"f	c #5A5875",
"g	c #222034",
"h	c #76428A",
"i	c #B598B2",
"j	c #8D768A",
"k	c #D77BBA",
"l	c #8F4975",
"m	c #472138",
"n	c #EF3E6D",
"o	c #70162B",
"p	c #5C855B",
"q	c #244B3A",
"r	c #111F12",
"s	c #1B0B0B",
"t	c #10162E",
"u	c #1A130F",
"v	c #1C1429",
"                                ",
"                                ",
"                                ",
"                                ",
"                                ",
"                                ",
"           oooooooooo           ",
"        oooooo6666oooooo        ",
"      nn6666666666666666nn      ",
"    ooonn66666666666666nnooo    ",
"   ooo6n6nn6666666666nn6n6ooo   ",
"  oo666n666nn666666nn666n666oo  ",
" oo66666n6666nn66nn6666n66666oo ",
" oo66666n66666nnnn66666n66666oo ",
"oo6666666n6nnn6666nnn6n6666666oo",
"oo666666nnn6666666666nnn666666oo",
"oo666nnn66n6666666666n66nnn666oo",
"oo6nn66666n6666666666n66666nn6oo",
"onnnnnnnnnnnnnnnnnnnnnnnnnnnnnno",
" oo666666666n666666n666666666oo ",
" oo666666666n666666n666666666oo ",
"  oo666666666n6666n666666666oo  ",
"   oo66666666n6666n66666666oo   ",
"    ooo6666666n66n6666666ooo    ",
"      ooo66666n66n66666ooo      ",
"        ooooo66nn66ooooo        ",
"           oooonnoooo           ",
"                                ",
"                                ",
"                                ",
"                                ",
"                                "};
